X:1
T:Title
%%score ( 1 2 3 ) { ( 4 6 ) | 5 }
L:1/8
Q:1/4=110
M:4/4
K:C
V:1 treble nm="Grand Piano, Staff 1"
V:2 treble 
V:3 treble 
V:4 bass nm="Choir Pad, Redcliff, 88.84"
V:6 bass 
V:5 bass 
V:1
 [EG]2 [Ec]2 [FB]2 [Gc]2 | [EG]2 [FA]2 [FA]2 [EG]2 | z4 z2 c2 | z2 .d4 z2 | G2 [FA]2 [FB]2 [Ec]2 | %5
w: By~Edward~John~Hopkins,~1863 * * *|||||
 z8 | z4 z2 B2- | B2 z2 z4 | z8 |] %9
w: ||||
V:2
 x8 | x8 | G2 [GA]2 [GB]2 E^F | [GB]2 G2 z c [GB]2 | x8 | [EB]2 [Ec]2 [Ad]2 [^Ge]2- | %6
 [Ge]2 [Ad]2 [Fc]2 =G2 | F2 [Ec]6- | [Ec]2 z2 z4 |] %9
V:3
 x8 | x8 | x8 | z4 ^F2 z2 | x8 | x8 | x8 | x8 | x8 |] %9
V:4
 G,2 G,2 G,2 G,2 | C2[K:treble] C2 C2 C2 | E2 E2 D2 C2 | z4 D2 z2 | C2 C2 D2 C2 | %5
 E2 C2[K:bass] A,2 B,2- | B,2 A,2 C2[K:treble] D2- | D2 C6- | C2 z2 z4 |] %9
V:5
 C,2 C,2 D,2 E,2 | C,2 F,2 A,2 z2 | C,2 C2 B,2 A,2 | E,2 .D,4 G,2 | E,2 F,2 D,2 A,2 | %5
 ^G,2 A,2 F,2 E,2- | E,2 F,2 A,2 G,2- | G,2 C,6- | C,2 z2 z4 |] %9
V:6
 x8 | x2[K:treble] x6 | x8 | G,2 A,2 z D, D2 | x8 | x4[K:bass] x4 | x6[K:treble] x2 | x8 | x8 |] %9

